X:1
T: Lady Madelina Palmer's Strathspey
C:William Marshall
R:Strathspey
Q: 128
K:F
M:4/4
L:1/16
|:AB|c3F d3F C3F Bd3|c3F BAGF EG3 G2AB|c3F d3F C3F Bd3|E2FG G2AB AF3 F2AB|
c3F d3F C3F Bd3|c3F BAGF EG3 G2AB|c3F d3F C3F Bd3|E2FG G2AB AF3 F2fg|
a3g fc3 df3 f3g|a3g fc3 dg3 g4|a3g fc3 df3 cf3|B2cd G2AB AF3 F4|
a3g fc3 df3 f4|a3g fc3 dg3 g3b|a3b g3a f3g d3f|B2cd G2AB AF3 F2:|
